public/img/instagram.svg

<svg width="30" height="31" viewBox="0 0 30 31" fill="none" xmlns="http://www.w3.org/2000/svg">
<path d="M29.9238 8.82179C29.8535 7.22747 29.5956 6.13138 29.2263 5.18161C28.8453 4.17345 28.2591 3.27085 27.4912 2.52051C26.7408 1.7585 25.8323 1.16638 24.8358 0.791324C23.8805 0.421993 22.7902 0.164172 21.1958 0.0938781C19.5896 0.0176307 19.0797 0 15.0058 0C10.932 0 10.4221 0.0176307 8.82179 0.0879248C7.22747 0.158219 6.13138 0.416269 5.18184 0.78537C4.17345 1.16638 3.27085 1.75254 2.52051 2.52051C1.7585 3.27085 1.16661 4.17941 0.791323 5.17589C0.421993 6.13138 0.164172 7.22151 0.0938781 8.81584C0.0176307 10.4221 0 10.932 0 15.0058C0 19.0797 0.0176307 19.5896 0.0879248 21.1899C0.158219 22.7842 0.416269 23.8803 0.785599 24.8301C1.16661 25.8382 1.7585 26.7408 2.52051 27.4912C3.27085 28.2532 4.17941 28.8453 5.17589 29.2204C6.13138 29.5897 7.22151 29.8475 8.81607 29.9178C10.4161 29.9883 10.9263 30.0057 15.0001 30.0057C19.074 30.0057 19.5839 29.9883 21.1842 29.9178C22.7785 29.8475 23.8746 29.5897 24.8241 29.2204C26.8407 28.4407 28.435 26.8464 29.2146 24.8301C29.5837 23.8746 29.8418 22.7842 29.9121 21.1899C29.9824 19.5896 30 19.0797 30 15.0058C30 10.932 29.994 10.4221 29.9238 8.82179ZM27.2217 21.0727C27.1571 22.5381 26.911 23.3294 26.7058 23.8569C26.2016 25.1641 25.1641 26.2016 23.8569 26.7058C23.3294 26.911 22.5323 27.1571 21.0727 27.2214C19.49 27.292 19.0153 27.3094 15.0118 27.3094C11.0082 27.3094 10.5276 27.292 8.9507 27.2214C7.48529 27.1571 6.69396 26.911 6.16642 26.7058C5.51591 26.4654 4.92379 26.0844 4.44318 25.5861C3.94494 25.0996 3.56393 24.5134 3.32351 23.8629C3.11836 23.3353 2.87221 22.5381 2.80787 21.0786C2.73735 19.496 2.71995 19.0211 2.71995 15.0175C2.71995 11.014 2.73735 10.5333 2.80787 8.95666C2.87221 7.49124 3.11836 6.69992 3.32351 6.17237C3.56393 5.52163 3.94494 4.92974 4.44913 4.44891C4.93547 3.95066 5.52163 3.56966 6.17237 3.32947C6.69992 3.12431 7.49719 2.87816 8.95666 2.81359C10.5393 2.7433 11.0142 2.72567 15.0175 2.72567C19.027 2.72567 19.5017 2.7433 21.0786 2.81359C22.544 2.87816 23.3353 3.12431 23.8629 3.32947C24.5134 3.56966 25.1055 3.95066 25.5861 4.44891C26.0844 4.93547 26.4654 5.52163 26.7058 6.17237C26.911 6.69992 27.1571 7.49697 27.2217 8.95666C27.292 10.5393 27.3096 11.014 27.3096 15.0175C27.3096 19.0211 27.292 19.49 27.2217 21.0727Z" fill="#333333"/>
<path d="M15.0058 7.29785C10.7504 7.29785 7.29773 10.7503 7.29773 15.0059C7.29773 19.2616 10.7504 22.714 15.0058 22.714C19.2615 22.714 22.7139 19.2616 22.7139 15.0059C22.7139 10.7503 19.2615 7.29785 15.0058 7.29785ZM15.0058 20.006C12.2451 20.006 10.0058 17.7669 10.0058 15.0059C10.0058 12.245 12.2451 10.0059 15.0058 10.0059C17.7667 10.0059 20.0058 12.245 20.0058 15.0059C20.0058 17.7669 17.7667 20.006 15.0058 20.006Z" fill="#333333"/>
<path d="M24.8184 6.99284C24.8184 7.98658 24.0126 8.79232 23.0187 8.79232C22.0249 8.79232 21.2192 7.98658 21.2192 6.99284C21.2192 5.99888 22.0249 5.19336 23.0187 5.19336C24.0126 5.19336 24.8184 5.99888 24.8184 6.99284Z" fill="#333333"/>
</svg>

<svg id="Camada_1" data-name="Camada 1" xmlns="http://www.w3.org/2000/svg" viewBox="0 0 30 30.01">
  <path d="M29.92,8.82a11,11,0,0,0-.69-3.64,7.27,7.27,0,0,0-1.74-2.66A7.51,7.51,0,0,0,24.84.79,11,11,0,0,0,21.2.09C19.59,0,19.08,0,15,0S10.42,0,8.82.09a11,11,0,0,0-3.64.7A7.25,7.25,0,0,0,2.52,2.52,7.46,7.46,0,0,0,.79,5.18a10.9,10.9,0,0,0-.7,3.64C0,10.42,0,10.93,0,15s0,4.58.09,6.18a11,11,0,0,0,.7,3.64,7.66,7.66,0,0,0,4.39,4.39,10.9,10.9,0,0,0,3.64.7c1.6.07,2.11.09,6.18.09s4.58,0,6.18-.09a10.9,10.9,0,0,0,3.64-.7,7.66,7.66,0,0,0,4.39-4.39,11,11,0,0,0,.7-3.64C30,19.59,30,19.08,30,15S30,10.42,29.92,8.82Zm-2.7,12.25a8.31,8.31,0,0,1-.51,2.79,5.06,5.06,0,0,1-2.85,2.85,8.37,8.37,0,0,1-2.79.51c-1.58.07-2.05.09-6.06.09s-4.48,0-6.06-.09a8.24,8.24,0,0,1-2.78-.51,4.74,4.74,0,0,1-1.73-1.12,4.7,4.7,0,0,1-1.12-1.73,8.24,8.24,0,0,1-.51-2.78C2.74,19.5,2.72,19,2.72,15s0-4.49.09-6.06a8.31,8.31,0,0,1,.51-2.79A4.49,4.49,0,0,1,4.45,4.45,4.66,4.66,0,0,1,6.17,3.33,8.3,8.3,0,0,1,9,2.81c1.58-.07,2-.08,6.06-.08s4.48,0,6.06.08a8.17,8.17,0,0,1,2.78.52,4.62,4.62,0,0,1,1.73,1.12,4.79,4.79,0,0,1,1.12,1.72A8.37,8.37,0,0,1,27.22,9c.07,1.58.09,2,.09,6.06S27.29,19.49,27.22,21.07Z" style="fill: #fff"/>
  <path d="M15,7.3A7.71,7.71,0,1,0,22.71,15,7.71,7.71,0,0,0,15,7.3ZM15,20a5,5,0,1,1,5-5A5,5,0,0,1,15,20Z" style="fill: #fff"/>
  <path d="M24.82,7A1.8,1.8,0,1,1,23,5.19,1.8,1.8,0,0,1,24.82,7Z" style="fill: #fff"/>
</svg>
